X: 545
T: Derd-i Hicrana
C: Tosunzade Abdullah Efendi
O: Turkey
F: http://compmusic.upf.edu/node/140
N: muhayyer--beste--muhammes--derd-i_hicrana--tosunzade_abdullah_efendi
N: makam= muhayyer
N: form= beste
N: usul= muhammes = 32/4
M: 32/4
L: 1/16
K: C _2/4B ^3/4f  
Q: 1/4=66
%%MIDI tuningsystem comma53
g4 ^f2 g2 a8  | a8 z2 g4 _1/4b2  | a6 ^f2 g2 f2 g2 a2  | \
w:   |   |   | 
a2 g2 ^f2 g2 e2 f2 d4  | 
w:   | 
d2 z2 e2 e2 e6 a2  | e8 z2 d4 e2  | e6 d2 c4 d2 e2  | \
w:   |   |   | 
d2 e6 e4 z4  | z4 g2 g2 g8  | 
w:   |   | 
g8 z2 ^f4 f2  | e2 g2 ^f2 e2 d2 ^c2 d2 =f2  | \
w:   |   | 
e2 d2 ^c2 e2 d2 c2 d4  | z4 d2 c'2 c'2 _1/4b2 b2 a2  | 
w:   |   | 
a2 g2 g2 ^f2 z2 d4 a2  | a3 g ^f2 g2 f2 e2 d2 e2  | \
w:   |   | 
d2 e6 e4 z4  | z4 e2 ^f2 g2 f2 g2 f2  | 
w:   |   | 
g2 ^f2 g2 a2 =b a g f e4  | e2 z2 d2 e2 e4 e2 d2  | \
w:   |   | 
z2 g2 =f2 e2 d2 c2 d4  | 
w:   | 
d2 z2 A2 A2 A4 A2 G2  | z2 =f2 e2 d2 d2 c2 _1/4B2 e2  | \
w:   |   | 
d2 c2 c4 c2 _1/4B2 B2 A2  | 
w:   | 
A12 z4  | g4 e2 ^f2 g8  | g8 z2 g2 ^f2 g2  | \
w:   |   |   | 
a4 _1/4b2 a2 g3 ^f e2 f2  | g6 ^f2 g2 f2 g4  | 
w:   |   | 
z4 ^f2 f2 f8  | ^f8 z2 f2 e2 f2  | a2 g4 ^f2 e2 d4 =f2  | \
w:   |   |   | 
e2 d4 g2 g2 ^f2 g4  | 
w:   | 
z4 e2 ^f2 a4 g4  | ^f2 ^e2 f4 z2 f4 f2  | \
w:   |   | 
e2 g2 ^f2 e2 d2 ^c2 d2 =f2  | e2 d2 ^c2 e2 d2 c2 d4  | 
w:   |   | 
z4 d2 c'2 c'2 _1/4b2 b2 a2  | a2 g2 g2 ^f2 z2 d4 a2  | \
w:   |   | 
a3 g ^f2 g2 f3 e d2 e2  | 
w:   | 
d2 e6 e4 z4  | z4 e2 ^f2 g2 f2 g2 f2  | \
w:   |   | 
g2 ^f2 g2 a2 =b a g f e4  | e2 z2 d2 e2 e4 e2 d2  | 
w:   |   | 
z2 g2 =f2 e2 d2 c2 d4  | d2 z2 A2 A2 A4 A2 G2  | \
w:   |   | 
z2 =f2 e2 d2 d2 c2 _1/4B2 e2  | 
w:   | 
d2 c2 c4 c2 _1/4B2 B2 A2  | A12 z4  | |


